packages/katcn/src/icons/svg/layout6-solid.svg

<svg width="24" height="25" viewBox="0 0 24 25" fill="none" xmlns="http://www.w3.org/2000/svg">
<path d="M6.3 2.40002H7.8V22.4H6.3C3.9 22.4 2 20.5 2 18.1V6.70002C2 4.30002 3.9 2.40002 6.3 2.40002Z" fill="black"/>
<path d="M22 6.70002V18.2C22 20.5 20.1 22.5 17.7 22.5H9.7V2.40002H17.7C20.1 2.40002 22 4.30002 22 6.70002Z" fill="black"/>
<path d="M18.5 13.4H12.8C12.2 13.4 11.8 13 11.8 12.4C11.8 11.8 12.2 11.4 12.8 11.4H18.5C19.1 11.4 19.5 11.8 19.5 12.4C19.5 13 19.1 13.4 18.5 13.4Z" fill="white"/>
<path d="M18.5 19.1H12.8C12.2 19.1 11.8 18.7 11.8 18.1C11.8 17.5 12.2 17.1 12.8 17.1H18.5C19.1 17.1 19.5 17.5 19.5 18.1C19.5 18.7 19.1 19.1 18.5 19.1Z" fill="white"/>
<path d="M18.5 7.70001H12.8C12.2 7.70001 11.8 7.30001 11.8 6.70001C11.8 6.10001 12.2 5.70001 12.8 5.70001H18.5C19.1 5.70001 19.5 6.10001 19.5 6.70001C19.5 7.30001 19.1 7.70001 18.5 7.70001Z" fill="white"/>
</svg>

<svg xmlns="http://www.w3.org/2000/svg" fill="none" viewBox="0 0 24 25"><path fill="#000" d="M6.3 2.4h1.5v20H6.3c-2.4 0-4.3-1.9-4.3-4.3V6.7c0-2.4 1.9-4.3 4.3-4.3M22 6.7v11.5c0 2.3-1.9 4.3-4.3 4.3h-8V2.4h8c2.4 0 4.3 1.9 4.3 4.3"/><path fill="#fff" d="M18.5 13.4h-5.7c-.6 0-1-.4-1-1s.4-1 1-1h5.7c.6 0 1 .4 1 1s-.4 1-1 1m0 5.7h-5.7c-.6 0-1-.4-1-1s.4-1 1-1h5.7c.6 0 1 .4 1 1s-.4 1-1 1m0-11.4h-5.7c-.6 0-1-.4-1-1s.4-1 1-1h5.7c.6 0 1 .4 1 1s-.4 1-1 1"/></svg>
